flaticon/productivity-and-development/stats-2.svg

<svg xmlns="http://www.w3.org/2000/svg" width="32" height="32" viewBox="0 0 24 24">
    <path d="M 22.195312 22.980469 L 22.195312 5.648438 L 21.128906 5.648438 L 21.128906 22.980469 L 15.753906 22.980469 L 15.753906 9.222656 L 14.6875 9.222656 L 14.6875 22.980469 L 9.3125 22.980469 L 9.3125 7.339844 L 8.246094 7.339844 L 8.246094 22.980469 L 2.871094 22.980469 L 2.871094 11.570312 L 1.804688 11.570312 L 1.804688 22.980469 L 0 22.980469 L 0 24 L 24 24 L 24 22.980469 Z M 22.195312 22.980469"/>
    <path d="M 8.882812 4.253906 L 15.039062 7.214844 C 15.246094 7.3125 15.496094 7.273438 15.65625 7.113281 L 21.128906 1.761719 L 21.128906 4.046875 L 22.195312 4.046875 L 22.195312 0.511719 C 22.195312 0.226562 21.957031 0 21.660156 0 L 18.046875 0 L 18.046875 1.019531 L 20.394531 1.019531 L 15.167969 6.132812 L 9.019531 3.179688 C 8.8125 3.078125 8.566406 3.117188 8.402344 3.273438 L 1.964844 9.382812 L 2.714844 10.105469 Z M 8.882812 4.253906"/>
</svg>

<svg xmlns="http://www.w3.org/2000/svg" width="32" height="32" viewBox="0 0 24 24">
    <path d="M22.195 22.98V5.648H21.13V22.98h-5.375V9.223h-1.066V22.98H9.311V7.34H8.246v15.64H2.871V11.57H1.805v11.41H0V24h24v-1.02zm0 0"/>
    <path d="M8.883 4.254l6.156 2.96a.547.547 0 0 0 .617-.1l5.473-5.352v2.285h1.066V.512A.521.521 0 0 0 21.66 0h-3.613v1.02h2.348l-5.227 5.113L9.02 3.18a.546.546 0 0 0-.618.093l-6.437 6.11.75.722zm0 0"/>
</svg>
